X:5515
T:Repeal of the Union, The
T:Hen and Her Brood, The
O:england
R:reel
D:Tommy Keane & Jacqueline McCarthy: The Wind in the Reeds
D:Fintan Vallely: Traditional Irish Flute Music
M:C|
K:Dmix
ADED ~A3G|E2cE dEcB|ADED ~A3G|E2cE EDD2:|
Adde fdec|ABcA dBcB|Adde fdcA|GEcE EDD2|
Adde fdec|ABcd eg~g2|afge fdcA|GEcE EDD2||
"variations"
AD~D2 ~A3F|GEcE dEcE|AD (3FED ~A3F|GEcE EDEG|
AD (3FED ADFD|GEcE dEcE|AD (3FED ~A3F|GEcE EDD2||
Adde fdec|ABcA dBcB|Adde fded|cAGE EDD2|
Adde fdec|ABcd efg2|afge d2ed|cAGE EDD2||
"more var's"
AD~D2 BD~D2|~E2cE ~E2cE|AD~D2 ~A3G|~E2cE EDD2:|
Adde f2ec|ABcA dBcB|Adde fded|~E2cE EDD2|
Adde fdec|ABcA dBcg|agge deed|~E2cE EDD2||


